X:1
T:What Will It Matter?
T:What Will It Matter?
T:William James Kirkpatrick
T:Frances Jane (Fanny) Crosby, 1894
T:Public Domain Courtesy of the Cyber Hymnal™
T:Public Domain Courtesy of the Cyber Hymnal™
C:William James Kirkpatrick
Z:Public Domain
Z:Courtesy of the Cyber Hymnal™
%%score 1 ( 2 3 )
L:1/8
Q:1/4=97
M:6/8
K:Ab
V:1 treble 
V:2 bass 
V:3 bass 
V:1
 [Ec]>[DB][CA] [CA] [CE]2 | [DF]2 [DA] [CE]3 | [Ec]>[EB][EA] [EA] [Ac]2 | [EB]2 [=DA] [EB]3 | %4
w: 1.~What will it mat- ter,|by and by,|What will it mat- ter,|by and by|
w: 2.~What will it mat- ter,|by and by,|What will it mat- ter,|by and by,|
w: 3.~What will it mat- ter,|by and by,|What will it mat- ter,|by and by,|
w: 4.~What will it mat- ter,|by and by,|What will it mat- ter,|by and by,|
 [Ec]>[Ec][Ec] [Ec][DB][CA] | [DB][DA][DF] [CE]3 | [Ec]>[Ec][Ec] [Ec][EB][EA] | %7
w: Whe- ther my cross- es were|hea- vy or light,|Whe- ther my path- way was|
w: Whe- ther my tri- als were|ma- ny or few,|Whe- ther the world was un-|
w: Whe- ther the wa- ters were|bit- ter or sweet,|Mur- mur- ing gent- ly, or|
w: Whe- ther I press with the|morn- ing a- way,|Whe- ther at noon- tide or|
 [Ge]>[Gd][Ac] [EB]3 | [Ec][Ec][Ec] [=Ec][Ec][Ec] | [F=d][Ad][Ad] !fermata![Ge]3 | %10
w: cloud- y or bright,|When I shall walk with the|ran- somed in white,|
w: faith- ful or true,|When my Re- deem- er in|glo- ry I view,|
w: sad at my feet,|When the de- part- ed, with|rap- ture, I meet,|
w: clos- ing of day,|When in the val- ley of|E- den I stray,|
 [=DA]>[DG][DA] [Ec][Ec][_DB] | [CA]6 |] %12
w: Safe in that beau- ti- ful|land?|
w: Home in that beau- ti- ful|land?|
w: Home in that beau- ti- ful|land?|
w: Home in that beau- ti- ful|land?|
V:2
 [A,,A,]>[A,,E,][A,,E,] [A,,E,] [A,,A,]2 | [D,A,]2 [F,A,] A,3 | A,>[A,D][A,C] [A,C] [A,E]2 | %3
 [G,B,]2 [F,B,] [E,G,]3 | [A,,A,]>[A,,A,][A,,A,] [A,,A,][A,,E,][A,,E,] | %5
 [D,F,][D,F,][D,A,] [A,,A,]3 | A,>A,A, A,[A,D][A,C] | [E,B,]>[E,B,][E,A,] [E,G,]3 | %8
 A,A,A, [G,B,][G,B,][G,B,] | [F,A,][F,A,][F,B,] !fermata![E,B,]3 | %10
 [B,,B,]>[B,,B,][B,,B,] [E,A,][E,A,][E,G,] | [A,,A,]6 |] %12
V:3
 x6 | x3 A,3 | A,3/2 x9/2 | x6 | x6 | x6 | A,>A,A, A, x2 | x6 | A,A,A, x3 | x6 | x6 | x6 |] %12

